icons/line/save-as.svg

<svg width="24" height="24" viewBox="0 0 24 24" fill="none" xmlns="http://www.w3.org/2000/svg">
<path d="M7 10H5C3.89543 10 3 10.8954 3 12V18C3 19.1046 3.89543 20 5 20H15C16.1046 20 17 19.1046 17 18V16M7 10V14C7 15.1046 7.89543 16 9 16H17M7 10V8C7 6.89543 7.89543 6 9 6H10M17 16H19C20.1046 16 21 15.1046 21 14V8C21 6.89543 20.1046 6 19 6H18M14 4V12M14 12L17 9M14 12L11 9" stroke="currentColor" stroke-width="2" stroke-linecap="round" stroke-linejoin="round"/>
</svg>

<svg width="24" height="24" fill="none" xmlns="http://www.w3.org/2000/svg"><path d="M7 10H5a2 2 0 00-2 2v6a2 2 0 002 2h10a2 2 0 002-2v-2M7 10v4a2 2 0 002 2h8M7 10V8a2 2 0 012-2h1m7 10h2a2 2 0 002-2V8a2 2 0 00-2-2h-1m-4-2v8m0 0l3-3m-3 3l-3-3" stroke="currentColor" stroke-width="2" stroke-linecap="round" stroke-linejoin="round"/></svg>
